remix/Document/folder-received-line.svg

<svg viewBox="0 0 24 24" fill="currentColor" xmlns="http://www.w3.org/2000/svg"><path d="M22 13H20V7H11.5858L9.58579 5H4V19H13V21H3C2.44772 21 2 20.5523 2 20V4C2 3.44772 2.44772 3 3 3H10.4142L12.4142 5H21C21.5523 5 22 5.44772 22 6V13ZM20 17H23V19H20V22.5L15 18L20 13.5V17Z"/></svg>

<svg viewBox="0 0 24 24" xmlns="http://www.w3.org/2000/svg"><path fill="none" d="M0 0h24v24H0Z"/><path d="M22 13h-2V7h-8.414l-2-2H4v14h9v2H3v0c-.56 0-1-.45-1-1V4v0c0-.56.44-1 1-1h7.414l2 2H21v0c.55 0 1 .44 1 1v7Zm-2 4h3v2h-3v3.5L15 18l5-4.5V17Z"/></svg>
